X:1
T:THE RETURNED EXILE
M:3/4
Q:1/4=120
K:Bb
F6|B2D3D|D2C3B,|F6|E4F2|c2A3F|F2G3A|B6|-B4F2|
B2B3A|c2B3A|G4FD|E4G2|F2G3F|ed3/2cB5/2|-B6|
B5/2||
